assets/images/layout-dontedityourself.svg

<svg width="1282" height="116" fill="none" xmlns="http://www.w3.org/2000/svg"><path d="M27.84 18.2H4.928V63H27.84c16.64 0 23.232-9.088 23.232-22.336 0-14.016-7.616-22.464-23.232-22.464zm.768 36.672h-13.76V26.328h13.76c9.28 0 12.544 6.848 12.544 14.336 0 7.424-3.712 14.208-12.544 14.208zm45.997 8.768c11.456 0 19.648-6.08 19.648-16.64s-8.192-16.64-19.648-16.64c-11.584 0-19.648 6.08-19.648 16.64s8.064 16.64 19.648 16.64zm0-7.232c-6.144 0-9.984-3.84-9.984-9.408s3.84-9.408 9.984-9.408c6.08 0 9.984 3.84 9.984 9.408s-3.904 9.408-9.984 9.408zm45.643-26.048c-7.744 0-10.752 3.392-11.904 5.056h-.256l.32-3.712V31h-9.6v32h9.6V48.024c0-6.976 4.416-10.688 9.984-10.688 5.632 0 8.064 3.136 8.064 9.728V63h9.536V44.632c0-10.624-6.784-14.272-15.744-14.272zM140.69 18.2v10.432h5.44c0 3.264-.832 4.672-5.12 4.672h-1.472v6.784h2.176c6.976 0 9.856-2.752 9.856-10.176V18.2h-10.88zm30.736 34.176v-14.4h10.048V31h-10.048V19.48l-9.6 1.28V31h-7.104v6.976h7.104v14.976c0 6.592 4.16 10.496 11.008 10.368.384 0 .896 0 1.728-.064l6.336-.512v-7.168l-4.224.256c-.64.064-1.216.064-1.408.064-2.752.064-3.84-1.408-3.84-3.52zm47.531 3.904c-5.056 0-9.728-1.984-10.944-6.656h29.12c.32-.832.512-2.112.512-3.392 0-9.984-8.512-15.872-19.328-15.872-11.456 0-19.648 6.592-19.648 16.832 0 10.112 8.448 16.384 20.352 16.384 8.64 0 17.6-3.2 18.624-11.136h-9.536c-1.152 3.008-5.312 3.84-9.152 3.84zm-.64-18.944c5.056 0 8.576 2.176 9.6 6.016h-19.648c1.344-3.776 4.864-6.016 10.048-6.016zm61.711 15.552V16.92h-9.473v17.6h-.256c-2.048-2.56-6.016-4.16-11.2-4.16-10.816 0-17.6 6.144-17.6 16.64 0 10.432 6.784 16.576 17.472 16.576 5.44 0 9.472-1.92 11.712-5.056h.256c.256 1.856.576 3.328.896 4.48h9.216v-.704c-.704-1.408-1.023-5.184-1.023-9.408zm-19.137 3.264c-5.952 0-9.728-3.392-9.728-9.152 0-5.824 3.776-9.216 9.728-9.216 5.824 0 9.664 3.392 9.664 9.216 0 5.76-3.84 9.152-9.664 9.152zM285.15 25.88h10.816v-8.96H285.15v8.96zM295.262 63V31h-9.536v32h9.536zm19.689-10.624v-14.4h10.048V31h-10.048V19.48l-9.6 1.28V31h-7.104v6.976h7.104v14.976c0 6.592 4.16 10.496 11.008 10.368.384 0 .896 0 1.728-.064l6.336-.512v-7.168l-4.224.256c-.64.064-1.216.064-1.408.064-2.752.064-3.84-1.408-3.84-3.52zM380.851 31h-10.112l-9.856 21.568h-.256L350.771 31h-10.176l15.488 32.064V77.08h9.28V62.936L380.851 31zm19.946 32.64c11.456 0 19.648-6.08 19.648-16.64s-8.192-16.64-19.648-16.64c-11.584 0-19.648 6.08-19.648 16.64s8.064 16.64 19.648 16.64zm0-7.232c-6.144 0-9.984-3.84-9.984-9.408s3.84-9.408 9.984-9.408c6.08 0 9.984 3.84 9.984 9.408s-3.904 9.408-9.984 9.408zm60.181-3.52V31h-9.472v14.976c0 6.976-3.84 10.688-9.216 10.688-5.312 0-8.128-3.136-8.128-9.728V31h-9.536v18.368c0 10.624 7.168 14.272 15.36 14.272 7.552 0 10.496-3.392 11.584-5.056h.32c.256 1.792.576 3.264.832 4.416h9.28v-.704c-.704-1.408-1.024-5.184-1.024-9.408zm24.991-22.016c-1.088-.128-2.112-.192-2.688-.192-3.84 0-5.248 1.664-7.296 5.632h-.256l.448-4.608V31h-9.472v32h9.472V49.176c0-5.632 1.856-10.048 7.616-10.048.192 0 .576 0 1.472.064l3.456.32v-8.256l-2.752-.384zm28.564 10.368h9.216c-.704-7.424-7.872-10.88-16.768-10.88-7.808 0-16.064 2.752-16.064 10.048 0 6.208 5.632 8.96 15.872 9.92 5.44.512 7.808 1.216 7.808 3.52 0 2.432-4.16 2.944-7.104 2.944-3.264 0-8-.512-8.576-4.352h-9.152c.64 8.064 8.576 11.2 17.216 11.2 8.384 0 16.768-2.368 16.768-9.984 0-5.632-3.84-9.088-14.592-10.048-6.656-.512-9.024-1.216-9.024-3.456 0-2.368 4.032-2.944 6.72-2.944 3.136 0 6.976.896 7.68 4.032zm32.6 15.04c-5.056 0-9.728-1.984-10.944-6.656h29.12c.32-.832.512-2.112.512-3.392 0-9.984-8.512-15.872-19.328-15.872-11.456 0-19.648 6.592-19.648 16.832 0 10.112 8.448 16.384 20.352 16.384 8.64 0 17.6-3.2 18.624-11.136h-9.536c-1.152 3.008-5.312 3.84-9.152 3.84zm-.64-18.944c5.056 0 8.576 2.176 9.6 6.016h-19.648c1.344-3.776 4.864-6.016 10.048-6.016zM580.231 63V16.92h-9.536V63h9.536zm23.913-38.656c.192 0 .768 0 1.472.064l4.16.256v-7.168l-6.272-.512c-.896-.064-1.408-.064-1.792-.064-6.848-.128-10.944 3.776-10.944 10.368V31h-7.488v6.976h7.488V63h9.536V37.976h8.832V31h-8.832v-3.136c0-2.112 1.088-3.584 3.84-3.52zM610.408 63h10.816V52.568h-10.816V63z" fill="#fff"/><path d="M666.84 18.2h-22.912V63h22.912c16.64 0 23.232-9.088 23.232-22.336 0-14.016-7.616-22.464-23.232-22.464zm.768 36.672h-13.76V26.328h13.76c9.28 0 12.544 6.848 12.544 14.336 0 7.424-3.712 14.208-12.544 14.208zm45.997 8.768c11.456 0 19.648-6.08 19.648-16.64s-8.192-16.64-19.648-16.64c-11.584 0-19.648 6.08-19.648 16.64s8.064 16.64 19.648 16.64zm0-7.232c-6.144 0-9.984-3.84-9.984-9.408s3.84-9.408 9.984-9.408c6.08 0 9.984 3.84 9.984 9.408s-3.904 9.408-9.984 9.408zm45.643-26.048c-7.744 0-10.752 3.392-11.904 5.056h-.256l.32-3.712V31h-9.6v32h9.6V48.024c0-6.976 4.416-10.688 9.984-10.688 5.632 0 8.064 3.136 8.064 9.728V63h9.536V44.632c0-10.624-6.784-14.272-15.744-14.272zM779.69 18.2v10.432h5.44c0 3.264-.832 4.672-5.12 4.672h-1.472v6.784h2.176c6.976 0 9.856-2.752 9.856-10.176V18.2h-10.88zm30.736 34.176v-14.4h10.048V31h-10.048V19.48l-9.6 1.28V31h-7.104v6.976h7.104v14.976c0 6.592 4.16 10.496 11.008 10.368.384 0 .896 0 1.728-.064l6.336-.512v-7.168l-4.224.256c-.64.064-1.216.064-1.408.064-2.752.064-3.84-1.408-3.84-3.52zm47.531 3.904c-5.056 0-9.728-1.984-10.944-6.656h29.12c.32-.832.512-2.112.512-3.392 0-9.984-8.512-15.872-19.328-15.872-11.456 0-19.648 6.592-19.648 16.832 0 10.112 8.448 16.384 20.352 16.384 8.64 0 17.6-3.2 18.624-11.136h-9.536c-1.152 3.008-5.312 3.84-9.152 3.84zm-.64-18.944c5.056 0 8.576 2.176 9.6 6.016h-19.648c1.344-3.776 4.864-6.016 10.048-6.016zm61.71 15.552V16.92h-9.472v17.6h-.256c-2.048-2.56-6.016-4.16-11.2-4.16-10.816 0-17.6 6.144-17.6 16.64 0 10.432 6.784 16.576 17.472 16.576 5.44 0 9.472-1.92 11.712-5.056h.256c.256 1.856.576 3.328.896 4.48h9.216v-.704c-.704-1.408-1.024-5.184-1.024-9.408zm-19.136 3.264c-5.952 0-9.728-3.392-9.728-9.152 0-5.824 3.776-9.216 9.728-9.216 5.824 0 9.664 3.392 9.664 9.216 0 5.76-3.84 9.152-9.664 9.152zm24.258-30.272h10.816v-8.96h-10.816v8.96zM934.261 63V31h-9.536v32h9.536zm19.69-10.624v-14.4h10.048V31h-10.048V19.48l-9.6 1.28V31h-7.104v6.976h7.104v14.976c0 6.592 4.16 10.496 11.008 10.368.384 0 .896 0 1.728-.064l6.336-.512v-7.168l-4.224.256c-.64.064-1.216.064-1.408.064-2.752.064-3.84-1.408-3.84-3.52zM1019.85 31h-10.11l-9.858 21.568h-.256L989.77 31h-10.176l15.488 32.064V77.08h9.278V62.936L1019.85 31zm19.95 32.64c11.45 0 19.65-6.08 19.65-16.64s-8.2-16.64-19.65-16.64c-11.59 0-19.65 6.08-19.65 16.64s8.06 16.64 19.65 16.64zm0-7.232c-6.15 0-9.99-3.84-9.99-9.408s3.84-9.408 9.99-9.408c6.08 0 9.98 3.84 9.98 9.408s-3.9 9.408-9.98 9.408zm60.18-3.52V31h-9.47v14.976c0 6.976-3.84 10.688-9.22 10.688-5.31 0-8.13-3.136-8.13-9.728V31h-9.53v18.368c0 10.624 7.16 14.272 15.36 14.272 7.55 0 10.49-3.392 11.58-5.056h.32c.26 1.792.58 3.264.83 4.416h9.28v-.704c-.7-1.408-1.02-5.184-1.02-9.408zm24.99-22.016c-1.09-.128-2.11-.192-2.69-.192-3.84 0-5.25 1.664-7.29 5.632h-.26l.45-4.608V31h-9.47v32h9.47V49.176c0-5.632 1.85-10.048 7.61-10.048.2 0 .58 0 1.48.064l3.45.32v-8.256l-2.75-.384zm28.56 10.368h9.22c-.71-7.424-7.87-10.88-16.77-10.88-7.81 0-16.06 2.752-16.06 10.048 0 6.208 5.63 8.96 15.87 9.92 5.44.512 7.81 1.216 7.81 3.52 0 2.432-4.16 2.944-7.11 2.944-3.26 0-8-.512-8.57-4.352h-9.16c.64 8.064 8.58 11.2 17.22 11.2 8.38 0 16.77-2.368 16.77-9.984 0-5.632-3.84-9.088-14.59-10.048-6.66-.512-9.03-1.216-9.03-3.456 0-2.368 4.03-2.944 6.72-2.944 3.14 0 6.98.896 7.68 4.032zm32.6 15.04c-5.05 0-9.73-1.984-10.94-6.656h29.12c.32-.832.51-2.112.51-3.392 0-9.984-8.51-15.872-19.33-15.872-11.45 0-19.65 6.592-19.65 16.832 0 10.112 8.45 16.384 20.36 16.384 8.64 0 17.6-3.2 18.62-11.136h-9.54c-1.15 3.008-5.31 3.84-9.15 3.84zm-.64-18.944c5.06 0 8.58 2.176 9.6 6.016h-19.65c1.35-3.776 4.87-6.016 10.05-6.016zM1219.23 63V16.92h-9.53V63h9.53zm23.91-38.656c.2 0 .77 0 1.48.064l4.16.256v-7.168l-6.28-.512c-.89-.064-1.4-.064-1.79-.064-6.85-.128-10.94 3.776-10.94 10.368V31h-7.49v6.976h7.49V63h9.53V37.976h8.84V31h-8.84v-3.136c0-2.112 1.09-3.584 3.84-3.52zM1249.41 63h10.81V52.568h-10.81V63z" stroke="#fff" stroke-width="1.5"/></svg>

<svg width="1282" height="116" viewBox="0 0 1282 116" fill="none" xmlns="http://www.w3.org/2000/svg">
<path d="M27.84 18.2H4.928V63H27.84C44.48 63 51.072 53.912 51.072 40.664C51.072 26.648 43.456 18.2 27.84 18.2ZM28.608 54.872H14.848V26.328H28.608C37.888 26.328 41.152 33.176 41.152 40.664C41.152 48.088 37.44 54.872 28.608 54.872ZM74.605 63.64C86.061 63.64 94.253 57.56 94.253 47C94.253 36.44 86.061 30.36 74.605 30.36C63.021 30.36 54.957 36.44 54.957 47C54.957 57.56 63.021 63.64 74.605 63.64ZM74.605 56.408C68.461 56.408 64.621 52.568 64.621 47C64.621 41.432 68.461 37.592 74.605 37.592C80.685 37.592 84.589 41.432 84.589 47C84.589 52.568 80.685 56.408 74.605 56.408ZM120.248 30.36C112.504 30.36 109.496 33.752 108.344 35.416H108.088L108.408 31.704V31H98.808V63H108.408V48.024C108.408 41.048 112.824 37.336 118.392 37.336C124.024 37.336 126.456 40.472 126.456 47.064V63H135.992V44.632C135.992 34.008 129.208 30.36 120.248 30.36ZM140.69 18.2V28.632H146.13C146.13 31.896 145.298 33.304 141.01 33.304H139.538V40.088H141.714C148.69 40.088 151.57 37.336 151.57 29.912V18.2H140.69ZM171.426 52.376V37.976H181.474V31H171.426V19.48L161.826 20.76V31H154.722V37.976H161.826V52.952C161.826 59.544 165.986 63.448 172.834 63.32C173.218 63.32 173.73 63.32 174.562 63.256L180.898 62.744V55.576L176.674 55.832C176.034 55.896 175.458 55.896 175.266 55.896C172.514 55.96 171.426 54.488 171.426 52.376ZM218.957 56.28C213.901 56.28 209.229 54.296 208.013 49.624H237.133C237.453 48.792 237.645 47.512 237.645 46.232C237.645 36.248 229.133 30.36 218.317 30.36C206.861 30.36 198.669 36.952 198.669 47.192C198.669 57.304 207.117 63.576 219.021 63.576C227.661 63.576 236.621 60.376 237.645 52.44H228.109C226.957 55.448 222.797 56.28 218.957 56.28ZM218.317 37.336C223.373 37.336 226.893 39.512 227.917 43.352H208.269C209.613 39.576 213.133 37.336 218.317 37.336ZM280.028 52.888V16.92H270.555V34.52H270.299C268.251 31.96 264.283 30.36 259.099 30.36C248.283 30.36 241.499 36.504 241.499 47C241.499 57.432 248.283 63.576 258.971 63.576C264.411 63.576 268.443 61.656 270.683 58.52H270.939C271.195 60.376 271.515 61.848 271.835 63H281.051V62.296C280.347 60.888 280.028 57.112 280.028 52.888ZM260.891 56.152C254.939 56.152 251.163 52.76 251.163 47C251.163 41.176 254.939 37.784 260.891 37.784C266.715 37.784 270.555 41.176 270.555 47C270.555 52.76 266.715 56.152 260.891 56.152ZM285.15 25.88H295.966V16.92H285.15V25.88ZM295.262 63V31H285.726V63H295.262ZM314.951 52.376V37.976H324.999V31H314.951V19.48L305.351 20.76V31H298.247V37.976H305.351V52.952C305.351 59.544 309.511 63.448 316.359 63.32C316.743 63.32 317.255 63.32 318.087 63.256L324.423 62.744V55.576L320.199 55.832C319.559 55.896 318.983 55.896 318.791 55.896C316.039 55.96 314.951 54.488 314.951 52.376ZM380.851 31H370.739L360.883 52.568H360.627L350.771 31H340.595L356.083 63.064V77.08H365.363V62.936L380.851 31ZM400.797 63.64C412.253 63.64 420.445 57.56 420.445 47C420.445 36.44 412.253 30.36 400.797 30.36C389.213 30.36 381.149 36.44 381.149 47C381.149 57.56 389.213 63.64 400.797 63.64ZM400.797 56.408C394.653 56.408 390.813 52.568 390.813 47C390.813 41.432 394.653 37.592 400.797 37.592C406.877 37.592 410.781 41.432 410.781 47C410.781 52.568 406.877 56.408 400.797 56.408ZM460.978 52.888V31H451.506V45.976C451.506 52.952 447.666 56.664 442.29 56.664C436.978 56.664 434.162 53.528 434.162 46.936V31H424.626V49.368C424.626 59.992 431.794 63.64 439.986 63.64C447.538 63.64 450.482 60.248 451.57 58.584H451.89C452.146 60.376 452.466 61.848 452.722 63H462.002V62.296C461.298 60.888 460.978 57.112 460.978 52.888ZM485.969 30.872C484.881 30.744 483.857 30.68 483.281 30.68C479.441 30.68 478.033 32.344 475.985 36.312H475.729L476.177 31.704V31H466.705V63H476.177V49.176C476.177 43.544 478.033 39.128 483.793 39.128C483.985 39.128 484.369 39.128 485.265 39.192L488.721 39.512V31.256L485.969 30.872ZM514.533 41.24H523.749C523.045 33.816 515.877 30.36 506.981 30.36C499.173 30.36 490.917 33.112 490.917 40.408C490.917 46.616 496.549 49.368 506.789 50.328C512.229 50.84 514.597 51.544 514.597 53.848C514.597 56.28 510.437 56.792 507.493 56.792C504.229 56.792 499.493 56.28 498.917 52.44H489.765C490.405 60.504 498.341 63.64 506.981 63.64C515.365 63.64 523.749 61.272 523.749 53.656C523.749 48.024 519.909 44.568 509.157 43.608C502.501 43.096 500.133 42.392 500.133 40.152C500.133 37.784 504.165 37.208 506.853 37.208C509.989 37.208 513.829 38.104 514.533 41.24ZM547.133 56.28C542.077 56.28 537.405 54.296 536.189 49.624H565.309C565.629 48.792 565.821 47.512 565.821 46.232C565.821 36.248 557.309 30.36 546.493 30.36C535.037 30.36 526.845 36.952 526.845 47.192C526.845 57.304 535.293 63.576 547.197 63.576C555.837 63.576 564.797 60.376 565.821 52.44H556.285C555.133 55.448 550.973 56.28 547.133 56.28ZM546.493 37.336C551.549 37.336 555.069 39.512 556.093 43.352H536.445C537.789 39.576 541.309 37.336 546.493 37.336ZM580.231 63V16.92H570.695V63H580.231ZM604.144 24.344C604.336 24.344 604.912 24.344 605.616 24.408L609.776 24.664V17.496L603.504 16.984C602.608 16.92 602.096 16.92 601.712 16.92C594.864 16.792 590.768 20.696 590.768 27.288V31H583.28V37.976H590.768V63H600.304V37.976H609.136V31H600.304V27.864C600.304 25.752 601.392 24.28 604.144 24.344ZM610.408 63H621.224V52.568H610.408V63Z" fill="white"/>
<path d="M666.84 18.2H643.928V63H666.84C683.48 63 690.072 53.912 690.072 40.664C690.072 26.648 682.456 18.2 666.84 18.2ZM667.608 54.872H653.848V26.328H667.608C676.888 26.328 680.152 33.176 680.152 40.664C680.152 48.088 676.44 54.872 667.608 54.872Z" stroke="white" stroke-width="1.5"/>
<path d="M713.605 63.64C725.061 63.64 733.253 57.56 733.253 47C733.253 36.44 725.061 30.36 713.605 30.36C702.021 30.36 693.957 36.44 693.957 47C693.957 57.56 702.021 63.64 713.605 63.64ZM713.605 56.408C707.461 56.408 703.621 52.568 703.621 47C703.621 41.432 707.461 37.592 713.605 37.592C719.685 37.592 723.589 41.432 723.589 47C723.589 52.568 719.685 56.408 713.605 56.408Z" stroke="white" stroke-width="1.5"/>
<path d="M759.248 30.36C751.504 30.36 748.496 33.752 747.344 35.416H747.088L747.408 31.704V31H737.808V63H747.408V48.024C747.408 41.048 751.824 37.336 757.392 37.336C763.024 37.336 765.456 40.472 765.456 47.064V63H774.992V44.632C774.992 34.008 768.208 30.36 759.248 30.36Z" stroke="white" stroke-width="1.5"/>
<path d="M779.69 18.2V28.632H785.13C785.13 31.896 784.298 33.304 780.01 33.304H778.538V40.088H780.714C787.69 40.088 790.57 37.336 790.57 29.912V18.2H779.69Z" stroke="white" stroke-width="1.5"/>
<path d="M810.426 52.376V37.976H820.474V31H810.426V19.48L800.826 20.76V31H793.722V37.976H800.826V52.952C800.826 59.544 804.986 63.448 811.834 63.32C812.218 63.32 812.73 63.32 813.562 63.256L819.898 62.744V55.576L815.674 55.832C815.034 55.896 814.458 55.896 814.266 55.896C811.514 55.96 810.426 54.488 810.426 52.376Z" stroke="white" stroke-width="1.5"/>
<path d="M857.957 56.28C852.901 56.28 848.229 54.296 847.013 49.624H876.133C876.453 48.792 876.645 47.512 876.645 46.232C876.645 36.248 868.133 30.36 857.317 30.36C845.861 30.36 837.669 36.952 837.669 47.192C837.669 57.304 846.117 63.576 858.021 63.576C866.661 63.576 875.621 60.376 876.645 52.44H867.109C865.957 55.448 861.797 56.28 857.957 56.28ZM857.317 37.336C862.373 37.336 865.893 39.512 866.917 43.352H847.269C848.613 39.576 852.133 37.336 857.317 37.336Z" stroke="white" stroke-width="1.5"/>
<path d="M919.027 52.888V16.92H909.555V34.52H909.299C907.251 31.96 903.283 30.36 898.099 30.36C887.283 30.36 880.499 36.504 880.499 47C880.499 57.432 887.283 63.576 897.971 63.576C903.411 63.576 907.443 61.656 909.683 58.52H909.939C910.195 60.376 910.515 61.848 910.835 63H920.051V62.296C919.347 60.888 919.027 57.112 919.027 52.888ZM899.891 56.152C893.939 56.152 890.163 52.76 890.163 47C890.163 41.176 893.939 37.784 899.891 37.784C905.715 37.784 909.555 41.176 909.555 47C909.555 52.76 905.715 56.152 899.891 56.152Z" stroke="white" stroke-width="1.5"/>
<path d="M924.149 25.88H934.965V16.92H924.149V25.88ZM934.261 63V31H924.725V63H934.261Z" stroke="white" stroke-width="1.5"/>
<path d="M953.951 52.376V37.976H963.999V31H953.951V19.48L944.351 20.76V31H937.247V37.976H944.351V52.952C944.351 59.544 948.511 63.448 955.359 63.32C955.743 63.32 956.255 63.32 957.087 63.256L963.423 62.744V55.576L959.199 55.832C958.559 55.896 957.983 55.896 957.791 55.896C955.039 55.96 953.951 54.488 953.951 52.376Z" stroke="white" stroke-width="1.5"/>
<path d="M1019.85 31H1009.74L999.882 52.568H999.626L989.77 31H979.594L995.082 63.064V77.08H1004.36V62.936L1019.85 31Z" stroke="white" stroke-width="1.5"/>
<path d="M1039.8 63.64C1051.25 63.64 1059.45 57.56 1059.45 47C1059.45 36.44 1051.25 30.36 1039.8 30.36C1028.21 30.36 1020.15 36.44 1020.15 47C1020.15 57.56 1028.21 63.64 1039.8 63.64ZM1039.8 56.408C1033.65 56.408 1029.81 52.568 1029.81 47C1029.81 41.432 1033.65 37.592 1039.8 37.592C1045.88 37.592 1049.78 41.432 1049.78 47C1049.78 52.568 1045.88 56.408 1039.8 56.408Z" stroke="white" stroke-width="1.5"/>
<path d="M1099.98 52.888V31H1090.51V45.976C1090.51 52.952 1086.67 56.664 1081.29 56.664C1075.98 56.664 1073.16 53.528 1073.16 46.936V31H1063.63V49.368C1063.63 59.992 1070.79 63.64 1078.99 63.64C1086.54 63.64 1089.48 60.248 1090.57 58.584H1090.89C1091.15 60.376 1091.47 61.848 1091.72 63H1101V62.296C1100.3 60.888 1099.98 57.112 1099.98 52.888Z" stroke="white" stroke-width="1.5"/>
<path d="M1124.97 30.872C1123.88 30.744 1122.86 30.68 1122.28 30.68C1118.44 30.68 1117.03 32.344 1114.99 36.312H1114.73L1115.18 31.704V31H1105.71V63H1115.18V49.176C1115.18 43.544 1117.03 39.128 1122.79 39.128C1122.99 39.128 1123.37 39.128 1124.27 39.192L1127.72 39.512V31.256L1124.97 30.872Z" stroke="white" stroke-width="1.5"/>
<path d="M1153.53 41.24H1162.75C1162.04 33.816 1154.88 30.36 1145.98 30.36C1138.17 30.36 1129.92 33.112 1129.92 40.408C1129.92 46.616 1135.55 49.368 1145.79 50.328C1151.23 50.84 1153.6 51.544 1153.6 53.848C1153.6 56.28 1149.44 56.792 1146.49 56.792C1143.23 56.792 1138.49 56.28 1137.92 52.44H1128.76C1129.4 60.504 1137.34 63.64 1145.98 63.64C1154.36 63.64 1162.75 61.272 1162.75 53.656C1162.75 48.024 1158.91 44.568 1148.16 43.608C1141.5 43.096 1139.13 42.392 1139.13 40.152C1139.13 37.784 1143.16 37.208 1145.85 37.208C1148.99 37.208 1152.83 38.104 1153.53 41.24Z" stroke="white" stroke-width="1.5"/>
<path d="M1186.13 56.28C1181.08 56.28 1176.4 54.296 1175.19 49.624H1204.31C1204.63 48.792 1204.82 47.512 1204.82 46.232C1204.82 36.248 1196.31 30.36 1185.49 30.36C1174.04 30.36 1165.84 36.952 1165.84 47.192C1165.84 57.304 1174.29 63.576 1186.2 63.576C1194.84 63.576 1203.8 60.376 1204.82 52.44H1195.28C1194.13 55.448 1189.97 56.28 1186.13 56.28ZM1185.49 37.336C1190.55 37.336 1194.07 39.512 1195.09 43.352H1175.44C1176.79 39.576 1180.31 37.336 1185.49 37.336Z" stroke="white" stroke-width="1.5"/>
<path d="M1219.23 63V16.92H1209.7V63H1219.23Z" stroke="white" stroke-width="1.5"/>
<path d="M1243.14 24.344C1243.34 24.344 1243.91 24.344 1244.62 24.408L1248.78 24.664V17.496L1242.5 16.984C1241.61 16.92 1241.1 16.92 1240.71 16.92C1233.86 16.792 1229.77 20.696 1229.77 27.288V31H1222.28V37.976H1229.77V63H1239.3V37.976H1248.14V31H1239.3V27.864C1239.3 25.752 1240.39 24.28 1243.14 24.344Z" stroke="white" stroke-width="1.5"/>
<path d="M1249.41 63H1260.22V52.568H1249.41V63Z" stroke="white" stroke-width="1.5"/>
</svg>
